X: 9
T: The Boyne Hunt
R: reel
M: 4/4
L: 1/8
K: Dmaj
u(B|{d}BA)FA D2vF/G/(A|D)(AF)(A BE)Ed|u({d}BA)F(A DEF)(B|ABd)(e fe)d(B|
{d}BA)F A([D2A2]F)(A|dA)F(A BE)Ed|B/B/(AF)(A DE)F(B|AB)d(e fd)de|
|vf(a{b}af a)(bf)a|v~g3(a bg)ea|vf(~a3 b)(fa)f|ve(Ad)(e fd)de|
uf(a{b}af) (~a3f)|v~g3(a bg)ea|v(ef)af e(~B3|vA)(Bd)(e {a}fe)dB||


Tune 142	Setting 12764

